contributed-vectors/wazirx.svg

<svg xmlns="http://www.w3.org/2000/svg" width="192" height="192" fill="none"><g clip-path="url(#a)"><path fill="#728DBE" fill-rule="evenodd" d="M29 19h133c5.5 0 10 4.5 10 10v133c0 5.5-4.5 10-10 10H29c-5.5 0-10-4.5-10-10V29c0-5.5 4.5-10 10-10Z" clip-rule="evenodd"/><path fill="#fff" d="m59 76 17 12.1-13.9 23.2L59 76ZM64.4 115.8h10.1l37-28.2-16.6-24.4-30.5 52.6ZM81.5 115.8h47.3l3.2-38.9-50.5 38.9ZM128.8 119.4H62.4v8.4h66.4v-8.4Z"/></g><defs><clipPath id="a"><path fill="#fff" d="M0 0h192v192H0z"/></clipPath></defs></svg>

<svg width="192" height="192" viewBox="0 0 192 192" fill="none" xmlns="http://www.w3.org/2000/svg">
<g clip-path="url(#clip0)">
<path fill-rule="evenodd" clip-rule="evenodd" d="M29 19H162C167.5 19 172 23.5 172 29V162C172 167.5 167.5 172 162 172H29C23.5 172 19 167.5 19 162V29C19 23.5 23.5 19 29 19Z" fill="#728DBE"/>
<path d="M59 76L76 88.1L62.1 111.3L59 76Z" fill="white"/>
<path d="M64.4 115.8H74.5L111.5 87.6L94.9 63.2L64.4 115.8Z" fill="white"/>
<path d="M81.5 115.8H128.8L132 76.9L81.5 115.8Z" fill="white"/>
<path d="M128.8 119.4H62.4V127.8H128.8V119.4Z" fill="white"/>
</g>
<defs>
<clipPath id="clip0">
<rect width="192" height="192" fill="white"/>
</clipPath>
</defs>
</svg>
